X:1
T:Psalm 129
T:V 6
L:1/4
M:18/4
I:linebreak $
K:F
V:1 treble nm="Pipe Organ" snm="Org."
V:1
 G2 G F E2 D2 F A2 G2 ^F G2 z |$ A2 c B A2 G2 A B G A G2 F3 z |$ G2 G F G2 A2 c G A2 B2 A3 z |$ %3
w: waar wie ver- by- gaan nooit met hand- ge- baar|en oes- tyds- groet die maai- er sal be- je- ën,|en sê: "Mag God jul ar- beid se- ën daar!"|
 A2 A G F2 D2 F G A G ^F2 G4 |] %4
w: waar nie- mand roep: "Wees in Gods Naam ge- se- ën!"|

